!!!COM: Chopin, Frederic
!!!CDT: 1810///-1849///
!!!OTL: Mazurka in C-sharp Minor, Op. 6, No. 2
!!!OPS: Op. 6
!!!ONM: No. 2
!!!OMD: Sotto voce ([half-dot]=63)
!!!ODT: 1830///-1832///
!!!PDT: 1832///-1833///
!!!PPP: Leipzig (1832); Paris (1833) and London
!!!ODE: Pauline Plater
!!!AIN: piano
**kern	**kern	**dynam
*staff2	*staff1	*staff1/2
*Ipiano	*Ipiano	*Ipiano
*>[I,A,A,B,B,C]	*>[I,A,A,B,B,C]	*>[I,A,A,B,B,C]
*>norep[I,A,B,C]	*>norep[I,A,B,C]	*>norep[I,A,B,C]
*>I	*>I	*>I
*clefF4	*clefG2	*clefG2
*k[f#c#g#d#]	*k[f#c#g#d#]	*k[f#c#g#d#]
*c#:	*c#:	*c#:
*M3/4	*M3/4	*M3/4
*MM189	*MM189	*MM189
=1-	=1-	=1-
*	*^	*
4GG# 4D#	4g#	4B#<	p
!	!	!LO:TX:b:i:t=legato.	!
2GG#^< 2D#^<	2g#^>	4A#<	.
.	.	8B#<L	.
.	.	8c#<J	.
*	*v	*v	*
=2	=2	=2
*	*^	*
4GG#\ 4D#\	4g#	8d#L	.
.	.	8B#J	.
2GG#^\ 2D#^\	2g#^	4.c#^	.
.	.	8A#<	.
=3	=3	=3	=3
!	!	!LO:TUP:b	!
4GG# 4D#	4g#	12B#<L	.
.	.	12c#<	.
.	.	12B#<J	.
2GG#^< 2D#^<	2g#^>	4A#<	.
.	.	8B#<L	.
.	.	8c#<J	.
=4	=4	=4	=4
4GG# 4D#	4g#	(12d#L	.
.	.	12f#	.
.	.	12eJ)	.
2GG#^ 2D#^	2g#^	2d#	.
=5	=5	=5	=5
!	!	!LO:TUP:b	!
4GG# 4D#	4g#^>	(12B#<L	.
.	.	12c#<	.
.	.	12B#<J)	.
4GG# 4D#	4g#^>	4A#<	.
4GG# 4D#	4g#^>	(8B#<L	.
.	.	8c#<J	.
!!LO:LB:g=original
=6	=6	=6	=6
4GG#\ 4D#\	4g#^	8d#L	.
.	.	8B#	.
.	.	(8qd#	.
4GG#\ 4D#\	4g#^	8c#)	.
.	.	8B#	.
4GG#\ 4D#\	4g#^	8c#	.
.	.	8A#J)	.
=7	=7	=7	=7
!	!	!LO:TUP:b	!
4GG# 4D#	4g#^>	12B#<L	.
.	.	12c#<	.
.	.	12B#<J	.
4GG# 4D#	4g#^>	4A#<	.
4GG#\ 4D#\	8B#X' 8g#'L	4ryy	.
.	8c#' 8g#'J	.	.
*	*v	*v	*
=8	=8	=8
!	!LO:TUP:b	!
4GG# 4D#	(12d#' 12g#'L	.
.	12f#' 12g#'	.
.	12e') 12g#'J	.
4GG# 4D#	4d# 4g#	.
=!|:	=!|:	=!|:
*>A	*>A	*>A
4r	(4g#^>	.
=9	=9	=9
*ped	*	*
4BB#	8gg#L)	.
.	16r	.
.	(16aaJk	.
4G# 4d# 4f#	4.ff#	.
4G# 4d# 4f#	.	.
*Xped	*	*
.	8gg#	.
=10	=10	=10
*ped	*	*
4C#	8.eeL	.
.	16gg#Jk	.
4G# 4c# 4e	4cc#	.
*Xped	*	*
4G# 4c# 4e	4ee	.
!!LO:LB:g=original
=11	=11	=11
*ped	*	*
4BB#	8.gg#L)	.
.	(16aaJk	.
4G# 4d# 4f#	4ff#)	.
*Xped	*	*
4G# 4d# 4f#	4gg#^	.
=12	=12	=12
*ped	*	*
4C#	(12eeL	.
.	12ff#	.
.	12gg#J)	.
.	(8qgg#	.
4G#^ 4c#^ 4e^	4.cc#)	.
*Xped	*	*
4r	.	.
.	(8cc##	.
=13	=13	=13
*ped	*	*
4FF##	8dd#'L)	.
.	16r	.
.	(16eeJk	.
!	!LO:N:acc=n#	!
4D# 4A# 4c#	4.cc#	.
4D# 4A# 4c#	.	<
*Xped	*	*
.	8dd#	.
=14	=14	=14
*ped	*	*
4GG#	8.b#L	.
.	16dd#Jk	.
*Xped	*	*
!LO:N:n=2:acc=n#	!	!
4D# 4F#X 4B#	4g#)	.
4D# 4F# 4B#	(4anT^	f
=15	=15	=15
*ped	*	*
!	!LO:TX:b:i:t=con forza.	!
4GG#	8g#'L)	.
.	16r	.
.	(16f#Jk	.
*Xped	*	*
4D# 4F# 4B#	4d#)	.
4D# 4F# 4B#	4g#	.
=16	=16	=16
*ped	*	*
.	(8qg#	.
4CC#	2c#^)	.
4C#: 4G#: 4e:	.	.
*Xped	*	*
!!LO:LB:g=original
=:|!|:	=:|!|:	=:|!|:
*>B	*>B	*>B
!	!LO:TX:b:i:t=leggiero.	!
4r	(4c##	.
=17	=17	=17
*ped	*	*
4GG#	8d#L)	.
.	16rb	.
.	(16f##Jk	.
4D# 4G# 4B#	4g#	.
4D# 4G# 4B#	8b#L	.
*Xped	*	*
.	8dd#J)	.
=18	=18	=18
*ped	*	*
4GG#	8d#'L	.
.	16rb	.
.	(16f##Jk	.
4D# 4G# 4B#	8g#L	.
.	8b#J	.
*Xped	*	*
4D# 4G# 4B#	4dd#^)	.
=19	=19	=19
*^	*	*
2A#	4E (4G#	8.cc##^L	.
.	.	(16a#Jk	.
.	4D# 4F##	4cc#')	.
4r	4GG#'' 4G#'')	(8b#L	.
.	.	8g#J)	.
=20	=20	=20	=20
(2A#	4E 4G#	(12cc##^L	.
.	.	12a#	.
.	.	12b#J)	.
!	!	!LO:N:acc=n#	!
.	4D# 4F##	4cc#	.
4ryy	4GG#`\ 4G#`\)	(8b#L	.
.	.	8g#J)	.
*v	*v	*	*
=21	=21	=21
*ped	*	*
4GGG# 4GG#	8d#L	.
.	16rb	.
.	16f##Jk	<
4D# 4G# 4B#	(4g#	.
4D# 4G# 4B#	8b#L	.
*Xped	*	*
.	8dd#J)	[
!!LO:LB:g=original
=22	=22	=22
*ped	*	*
4GG#'	8d#L	.
.	16r	.
.	(16f##Jk	.
4D# 4G# 4B#	8g#L	.
.	8b#J	.
*Xped	*	*
4D# 4G# 4B#	4dd#^)	.
=23	=23	=23
*^	*	*
(2A#^	4E 4G#	(8cc##L	.
.	.	8a#J	.
!	!	!LO:N:acc=n#	!
.	4D# 4F##	4cc#	.
4ryy	4GG#''\ (4G#''\)	8b#L)	.
.	.	(8g#J	.
*v	*v	*	*
=24	=24	=24
!	!LO:TX:b:i:t=calando.	!
2.r	8.gg#L)	.
.	(16g#k	.
.	8.gg#)	.
.	(16g#k	.
.	8.gg#)	.
.	(16g#Jk	.
=25	=25	=25
*ped	*	*
!!LO:TX:a:i:t=a tempo.
4BB#	8.gg#L)	.
.	(16aaJk	.
4G# 4d# 4f#	4.ff#	.
4G# 4d# 4f#	.	.
*Xped	*	*
.	8gg#	.
=26	=26	=26
*ped	*	*
4C#	8.eeL	.
.	16gg#Jk	.
4G# 4c# 4e	4cc#	.
*Xped	*	*
4G# 4c# 4e	4ee	.
=27	=27	=27
*ped	*	*
4BB#	8gg#''L)	.
.	16r	.
.	(16aaJk	.
4G# 4d# 4f#	4ff#)	.
*Xped	*	*
4G# 4d# 4f#	4gg#^	.
!!LO:LB:g=original
=28	=28	=28
!	!LO:TUP:a	!
*ped	*	*
4C#	(12eeL	.
.	12ff#	.
.	12gg#J)	.
.	(8qgg#	.
4G#^ 4c#^ 4e^	4.cc#^)	.
4r	.	.
*Xped	*	*
.	8cc##	.
=29	=29	=29
*^	*	*
4r	2.FF##	8dd#^L	f
.	.	8ee^J	.
!	!	!LO:N:acc=n#	!
4D# 4A#	.	4cc#X^	.
4D# 4A#	.	4dd#^	.
*v	*v	*	*
=30	=30	=30
4GG#	8b#^L	.
.	8dd#^J	.
4D# 4F# &(4B#&)	8g#^	.
.	8r	.
4r	(4anT^	.
=31	=31	=31
*ped	*	*
!	!LO:TX:b:i:t=con forza.	!
4GG#	8g#''L)	.
.	16r	.
.	(16f#Jk	.
4D# 4F# 4B#	4d#)	.
*Xped	*	*
4D# 4F# 4B#	4g#	.
=32	=32	=32
*ped	*	*
.	(8qg#	.
4CC#	2c#^)	.
*Xped	*	*
4C#: 4G#: 4e:	.	.
=:|!	=:|!	=:|!
*>C	*>C	*>C
!!LO:TX:a:i:t=gajo.
4r	(4c#	p
=33	=33	=33
*ped	*	*
4AA	8cc#L	<
.	8dd#J	.
4E 4c#	4.ee	[
4E 4c#	.	.
*Xped	*	*
.	8cc#)	.
!!LO:LB:g=original
=34	=34	=34
*ped	*	*
4EE	(8bL	.
.	8g#J	.
4E 4B	2e^)	.
*Xped	*	*
4E 4B	.	.
=35	=35	=35
*ped	*	*
4AA	(8cc#L	<
.	8dd#J	.
4E 4c#	4ee')	[
*Xped	*	*
.	(8qff#	.
4E 4c#	(8eeL)	.
.	8cc#J	.
=36	=36	=36
*ped	*	*
4EE	8bL	.
.	8g#J)	.
4E 4B	[2e^	.
*Xped	*	*
4E 4B	.	.
=37	=37	=37
*	*^	*
(4AA 4E	(8eL]	4c#	p
.	8aJ	.	.
4EE' 4E'	2g#)	4B	.
4EE') 4E'	.	4B	.
=38	=38	=38	=38
(4AA 4E	(8eL	4c#^	.
.	(8qb	.	.
.	8aJ)	.	.
4EE' 4E'	2g#)	4B	.
4EE') 4E'	.	4B	.
=39	=39	=39	=39
(4AA 4E	(8eL	4c#^	.
.	8aJ	.	.
4EE' 4E'	4g#	4B	.
4EE') 4E'	4g#)	4B	.
=40	=40	=40	=40
*^	*	*	*
4E	8.AAL	(8eL	4c#	.
.	.	8aJ	.	.
.	16BBJk	.	.	.
*ped	*	*	*	*
4C#^	2ryy	4G#^ 4g#^)	4ryy	f
4CC#^	.	4r	4r	.
*v	*v	*	*	*
*	*v	*v	*
!!LO:LB:g=original
=41	=41	=41
4r	(8ee#L	f
.	8ff##J	.
4E# 4G# 4c# 4e#	4.gg#^	.
4E# 4G# 4c# 4e#	.	.
*Xped	*	*
.	8ee#)	.
=42	=42	=42
*ped	*	*
4GG#	(8dd#L	.
.	8b#J)	.
4D# 4G# 4B#	2g#^	.
*Xped	*	*
4D# 4G# 4B#	.	.
=43	=43	=43
*ped	*	*
4C#	(8ee#L	.
.	8ff##J	.
4E# 4G# 4c# 4e#	4gg#)	.
*Xped	*	*
.	(8qaa#	.
4E# 4G# 4c# 4e#	(8gg#L)	.
.	8ee#J)	.
=44	=44	=44
*ped	*	*
4GG#	(8dd#L	.
.	8b#J	.
*Xped	*	*
4D# 4G# 4B#	[>2g#^)	.
4D# 4G# 4B#	.	.
=45	=45	=45
*	*^	*
4C# 4G# 4c#	(8g#L]	4e#	.
.	8cc#J	.	.
(4GG#' 4G#'	2b#^)	4d#	.
4GG#') 4G#'	.	4d#	.
=46	=46	=46	=46
4C# 4G#	(8g#L	4e#^	.
.	8cc#J	.	.
(4GG# 4G#	2b#^)	4d#	>
4GG# 4G#	.	4d#	.
!!LO:LB:g=original
=47	=47	=47	=47
4C#) 4G#	(8g#L	4e#^	.
.	8cc#J	.	.
4GG# 4G#	4b#'	4d#	.
4GG# 4G#	4b#')	4d#	.
=48	=48	=48	=48
4C# 4G#	(8g#L	4e#^	.
.	8cc#J	.	.
4GG# 4G#	4b#^)	4d#	.
4GG# 4G#	4r	8d#L	.
.	.	8c#J	.
=49	=49	=49	=49
!	!	!LO:TX:a:i:t=sotto voce.	!
4GG# 4D#	4g#	4B#<	.
2GG#^< 2D#^<	2g#^>	4A#<	.
.	.	8B#<L	.
.	.	8c#<J	.
=50	=50	=50	=50
4GG#\ 4D#\	4g#	8d#L	.
.	.	8B#J	.
2GG#^\ 2D#^\	2g#^	4.c#^	.
!	!	!LO:TX:b:i:t=sempre legato.	!
.	.	8A#<	.
=51	=51	=51	=51
!	!	!LO:TUP:b	!
4GG# 4D#	4g#	12B#<L	.
.	.	12c#<	.
.	.	12B#<J	.
2GG#^< 2D#^<	2g#^>	4A#<	.
.	.	8B#<L	.
.	.	8c#<J	.
=52	=52	=52	=52
4GG# 4D#	4g#	(12d#L	.
.	.	12f#	.
.	.	12eJ)	.
2GG#^ 2D#^	2g#^	2d#	.
!!LO:LB:g=original
=53	=53	=53	=53
!	!	!LO:TUP:b	!
4GG# 4D#	4g#^>	(12B#<L	.
.	.	12c#<	.
.	.	12B#<J)	.
4GG# 4D#	4g#^>	4A#<	.
4GG# 4D#	4g#^>	(8B#<L	.
.	.	8c#<J	.
=54	=54	=54	=54
4GG#\ 4D#\	4g#^	8d#L	.
.	.	8B#	.
.	.	(8qd#	.
4GG#\ 4D#\	4g#^	8c#)	.
.	.	8B#	.
4GG#\ 4D#\	4g#^	8c#	.
.	.	8A#J)	.
=55	=55	=55	=55
!	!	!LO:TUP:b	!
4GG# 4D#	4g#^>	(>12B#<L	.
.	.	12c#<	.
.	.	12B#<J)	.
4GG# 4D#	4g#^>	4A#<	.
4GG#\ 4D#\	8B#X' 8g#'L	4ryy	.
.	8c#' 8g#'J	.	.
*	*v	*v	*
=56	=56	=56
4GG# 4D#	(12d#' 12g#'L	.
.	12f#' 12g#'	.
.	12e') 12g#'J	.
4GG# 4D#	4d# 4g#	.
4r	(4g#^	.
=57	=57	=57
*ped	*	*
4BB#	8gg#L)	p
.	16r	.
.	(16aaJk	.
4G# 4d# 4f#	4.ff#	.
4G# 4d# 4f#	.	.
*Xped	*	*
.	8gg#)	.
=58	=58	=58
*ped	*	*
4C#	(8.eeL	.
.	16gg#Jk	.
4G# 4c# 4e	4cc#	.
*Xped	*	*
4G# 4c# 4e	4ee	.
!!LO:LB:g=original
=59	=59	=59
*ped	*	*
4BB#	8.gg#L)	.
.	(16aaJk	.
*Xped	*	*
4G# 4d# 4f#	4ff#	.
4G# 4d# 4f#	4gg#^)	.
=60	=60	=60
*ped	*	*
!	!LO:TUP:a	!
4C#	(12eeL	.
.	12ff#	.
.	12gg#J)	.
*Xped	*	*
.	(8qgg#	.
4G#^ 4c#^ 4e^	4.cc#)	.
4r	.	.
.	(8cc##	.
=61	=61	=61
*ped	*	*
4FF##	8dd#''L)	<
.	16rdd	.
.	(16eeJk	.
*Xped	*	*
!	!LO:N:acc=n#	!
4D# 4A# 4c#	4.cc#X	.
4D# 4A# 4c#	.	.
.	8dd#	.
=62	=62	=62
*ped	*	*
4GG#	8.b#L	.
.	16dd#Jk	.
4D# 4F# 4B#	4g#)	.
*Xped	*	*
4D# 4F# 4B#	(4an^T	.
=63	=63	=63
*ped	*	*
!	!LO:TX:b:i:t=con forza.	!
4GG#	8g#L)	.
.	16r	.
.	(16f#Jk	.
*Xped	*	*
4D# 4F# 4B#	4d#)	.
4D# 4F# 4B#	4g#^	.
=64	=64	=64
*ped	*	*
.	(8qg#	.
4CC#	2c#^)	.
*Xped	*	*
4C#: 4G#: 4e:	.	.
4r	(>4g#	p
=65	=65	=65
*ped	*	*
!	!LO:TX:b:i:t=rubato.	!
4BB#	8gg#'L	.
.	8aa'J	.
4G# 4d# 4f#	4ff#'	.
*Xped	*	*
4G# 4d# 4f#	4gg#'	.
!!LO:LB:g=original
=66	=66	=66
*ped	*	*
4C#	8ee'L	.
.	8gg#'J	.
4G# 4c# 4e	4cc#'	.
*Xped	*	*
4G# 4c# 4e	4ee')	.
=67	=67	=67
*ped	*	*
!	!LO:TUP:a	!
4BB#	(12gg#L	.
.	(8qbb	.
.	12aa)	.
.	24raa	.
.	24gg#Jk)	.
4G# 4d# 4f#	4dd#	.
*Xped	*	*
4G# 4d# 4f#	4gg#^	.
.	(8qgg#	.
=68	=68	=68
*ped	*	*
!	!LO:TUP:a	!
4C#	(12eeL)	.
.	12ff#	.
.	12gg#J)	.
.	(8qgg#	.
4G# 4c# 4e	4.cc#)	.
*Xped	*	*
4r	.	.
.	8cc##	.
=69	=69	=69
*ped	*	*
4FF##	(8dd#'L	f
.	16rdd	.
.	16ee'Jk	.
!	!LO:N:acc=n#	!
4D# 4A# 4c#	4cc#X'	.
*Xped	*	*
4D# 4A# 4c#	4dd#'	.
=70	=70	=70
*ped	*	*
(4GG#	8b#'L	.
.	16rdd	.
.	16dd#'Jk	.
!LO:N:n=2:acc=n#	!	!
4D# 4F# 4B#)	4g#)	.
*Xped	*	*
4r	(4an^T	.
=71	=71	=71
*ped	*	*
!	!LO:TX:b:i:t=con forza.	!
4GG#	8g#L)	.
.	16r	.
.	(16f#Jk	.
4D# 4F# 4B#	4d#)	.
*Xped	*	*
4D# 4F# 4B#	4g#^	.
=72	=72	=72
*ped	*	*
.	(8qg#	.
4CC#	2.c#^;)	.
4C#: 4G#: 4e:	.	.
*Xped	*	*
4r;	.	.
==	==	==
*-	*-	*-
!!!RDF**kern: > = above
!!!RDF**kern: < = below
!!!SMS: Mikuli edition, G. Schirmer (1894-1898)
!!!ENC: Craig Stuart Sapp
!!!END: 2005/01/05
!!!EEV: 2020/04/05
